X:1
T:Hor  che morir
T:Hor  che morir
T:Claudio Saracini
T:Source : Le terze Musiche per cantar e sonar---Venetia---A.Vincenti---1620. Editor : André Vierendeels (18/01/16).
T:Notes : Original clefs : C1, F4 Figures above the BC are notated in original print The original print was damaged (perhaps during WWII), necessitating an editor addendum m27 Text by cavalier Marino (Lira- parte terza-1616)
T:©
T:©
T:©
C:Claudio Saracini
Z:©
%%score 1 2
L:1/8
Q:1/4=120
M:4/4
K:C
V:1 treble nm="Soprano" snm="S"
V:2 bass nm="BC" snm="BC"
V:1
 z4 d4 | ^G3 G G2 A2 | B4 B4 | cc c4 ^c2 | z2 ^cc d4 |"^-natural" F6 GF | E8 | D8 | %8
w: Hor|che mo- rir ti|mi- ro,|e di do- glia|e pie- ta|l'al- ma non|spe-|ro,|
 E/F/G/A/ B/c/d/e/- e4 | ^cB A>E ^F4 | ^F4 z ABc | d6 c2 | B8 | A8 | e2 ^c2 d2 AA | B4 B2 ^G2 | %16
w: O _ _ _ _ _ _ _ _|mio tra- fit- to'A- mo-|re ben' ho di|sas- so'il|co-|re,|An- zi co- re'io non|ho, an- zi|
 A2 EE ^F4 | A2 d3 d z e | A6 B2 | ^G8 | z BBB d4- | d2 A2 B4 | B4 dc B2 | ^FGAA e2 AG | ^F8 | %25
w: co- re'io non ho|l'ha- ves- si (ahi|las- *|so)|e fus- si pur|_ di sas-|so, ch'e s'e ver,|ch'o- gni sas- so hog- gi si|spe-|
 ^F8 | A2 dd dc B2 | z edc B4- | B4 A4 | E2 AA AG ^F2 | z dcB A4- | A8 | G8 |] %33
w: tre,|si spez- ze- reb- be'an- cor|con l'al- tre pe-|* tre,|si pez- ze- reb- be'an- cor|con l'al- tre pe-||tre.|
V:2
 G,,6 D,2 |"^#" E,6 ^F,2 | G,4 G,,4 |"^#" C,6 A,,2 | A,,4 ^F,,4 | D,4 A,,4- | A,,8 | D,8 | C,8 | %9
 ^C,4 D,4 | D,,4 D,4- | D,4 E,4- | E,8 | A,,8 | A,4 ^F,4 | E,4 E,4 | ^C,4 D,4 | ^F,6 A,2 | %18
 F,4 E,4- | E,8 | G,8 | F,4 E,4 | E,4 B,,4 | D,4 ^C,4 | D,8 | D,,8 | D,6 E,2 | E,8- | E,4 A,,4 | %29
 A,,6 D,2 | D,8- | D,8 | G,,8 |] %33

